X:18661
T:When She Cam Ben She Bobbit
G:song from Midlothian
M:6/8
L:1/8
K:EMin
B,|E>EE G2G|FD2 z2
D |E>EE e2e|dB2 z2
z |d>ed d2B|A2G FGA|B2B BAB|GE2 z2|]


